X:36
T: Sonny's Mazurka  (named for Dublin accordionist Sonny Brogan 1906-1965)
M: 3/4 %% X:9 WJ 2015
L: 1/8
K: D
% %%vskip .09cm 
                                             DF |\
"D"A2 AG FA |d2 dA BA |"G"G2 GB AG |"Em"FG EF DF |
"D"A2 AG FA |d2 dA BA |"G"G2 Gg fe | "D"d4      :|
|:                                                           Ad |\
"D"f2 fa "G"gf |"A"e2 eg "D"fe |d2 df    ed |"A"cd "Bm"Bc "D"Ad |
   f2 fa "G"gf |"A"e2 eg "D"fe |dc df "A"ec |"D"d4             :|
% %%stretchlast

